!!!COM: Haydn, Franz Joseph
!!!OTL: String Quartet in E-flat Major
!!!OPS: Opus 1
!!!ONM: No. 0
!!!OMD: Adagio
!!!OMV: 3
!!!SCT: H II:6
!!!SCA: Thematisch-bibliographisches Werkevererzeichnis (A. van Hoboken)
!!!YOR: Bremner Edition, 1772
!!!ENC: Frances Bennion
!!!CDT: 1732/3/31/-1809/5/31/
!!!CNT: Oesterreich
!!!YEC: Copyright (c) 1994, 2000 Center for Computer Assisted Research in the Humanities
!!!YEM: Rights to all derivative editions reserved.
!!!YEM: Refer to licensing agreement for further details.
!!!YEN: United States of America
**kern	**kern	**kern	**kern	**kern
*k[b-e-]	*k[b-e-]	*k[b-e-]	*k[b-e-]	*k[b-e-]
*B-:	*B-:	*B-:	*B-:	*B-:
*clefF4	*clefC3	*clefF	*clefF	*clefF
*M2/2	*M2/2	*M2/2	*M2/2	*M2/2
4BB-	2r	8r	1r	1bb-
.	.	8b-	.	.
4r	.	8dd	.	.
.	.	8b-	.	.
4B-	8r	4d	.	.
.	8d	.	.	.
4r	8f	4r	.	.
.	8d	.	.	.
=2	=2	=2	=2	=2
4BB-	4dd	8r	1r	2.ff
.	.	8b-	.	.
4r	4.r	8dd	.	.
.	.	8b-	.	.
4B-	.	4d	.	.
.	8d	.	.	.
4r	8f	4r	.	16ee-
.	.	.	.	16dd
.	8d	.	.	16cc
.	.	.	.	16b-
=3	=3	=3	=3	=3
4FF	4f	8r	2.f	4.cc
.	.	8a	.	.
4r	4.r	8cc	.	.
.	.	8a	.	8dd
4F	.	4f	.	4ee-
.	8f	.	.	.
4r	8cc	4r	4f	4ee-
.	8a	.	.	.
=4	=4	=4	=4	=4
4BB-	4b-	8r	1r	2dd
.	.	8b-	.	.
4r	4.r	8f	.	.
.	.	8b-	.	.
4B-	.	4B-	.	2r
.	8d	.	.	.
4r	8f	4r	.	.
.	8d	.	.	.
=5	=5	=5	=5	=5
4BB-	4b-	8r	4.B-	1f
.	.	8b-	.	.
4r	4.r	8dd	.	.
.	.	8b-	8c	.
4B-	.	4B-	4d	.
.	8B-	.	.	.
4r	8d	4r	4d	.
.	8B-	.	.	.
=6	=6	=6	=6	=6
4FF	4f	8r	4.c	1f
.	.	8a	.	.
4r	4.r	8cc	.	.
.	.	8a	8d	.
4F	.	4f	4e-	.
.	8A	.	.	.
4r	8c	4r	4e-	.
.	8A	.	.	.
=7	=7	=7	=7	=7
4BB-	4B-	8r	1r	8d
.	.	8d	.	8f
4r	4.r	8f	.	8b-
.	.	8b-	.	8dd
4B-	.	4d	.	4.ff
.	8b-	.	.	.
4r	8dd	4r	.	.
.	8b-	.	.	8dd
=8	=8	=8	=8	=8
4F	4f	8r	1r	2dd
.	.	8b-	.	.
4r	4.r	8f	.	.
.	.	8b-	.	.
4FF	.	4a	.	2cc
.	8F	.	.	.
4r	8A	4r	.	.
.	8c	.	.	.
=9	=9	=9	=9	=9
4FF	4f	8r	1r	1ff 1a
.	.	8a	.	.
4r	4.r	8cc	.	.
.	.	8a	.	.
4F	.	4A	.	.
.	8f	.	.	.
4r	8a	4r	.	.
.	8f	.	.	.
=10	=10	=10	=10	=10
4GG	4b-	8r	1r	4.b- 4.ee
.	.	8g	.	.
4r	4.r	8b-	.	.
.	.	8g	.	24gg
.	.	.	.	24ff
.	.	.	.	24ee
4G	.	4e	.	4bb-
.	8e	.	.	.
4r	8g	4r	.	4r
.	8e	.	.	.
=11	=11	=11	=11	=11
4C	4cc	8r	1r	4bb-
.	.	8g	.	.
4r	4.r	8b-	.	4gg
.	.	8g	.	.
4c	.	4c	.	4ee
.	8g	.	.	.
4r	8e	4r	.	4b-
.	8g	.	.	.
=12	=12	=12	=12	=12
4FF	4f	8r	1r	2b-
.	.	8c	.	.
4r	4.r	8e	.	.
.	.	8c	.	.
4F	.	4f	.	2a
.	8A	.	.	.
4r	8c	4r	.	.
.	8A	.	.	.
=13	=13	=13	=13	=13
4AA	4f	8r	1r	4.cc
.	.	8f	.	.
4r	4.r	8a	.	.
.	.	8b-	.	8dd
4A	.	4cc	.	4ee-
.	8f	.	.	.
4r	8cc	4r	.	4ee-
.	8f	.	.	.
=14	=14	=14	=14	=14
4BB-	4b-	8r	1r	4dd
.	.	8b-	.	.
4r	4.r	8dd	.	2B-
.	.	8b-	.	.
4B-	.	4d	.	.
.	8d	.	.	.
4r	8f#	4r	.	4A
.	8d	.	.	.
=15	=15	=15	=15	=15
4BB-	4g	8r	1r	4G
.	.	8b-	.	.
4r	4.r	8g	.	4ddd
.	.	8b-	.	.
4B-	.	4G	.	4bb-
.	8g	.	.	.
4r	8b-	4r	.	4gg
.	8g	.	.	.
=16	=16	=16	=16	=16
4c	4cc	8r	1r	2ee
.	.	8cc	.	.
4r	4.r	8g	.	.
.	.	8cc	.	.
4C	.	4e	.	2r
.	8e	.	.	.
4r	8g	4r	.	.
.	8e	.	.	.
=17	=17	=17	=17	=17
4F	4f	8r	1r	[1ccc
.	.	8f	.	.
4r	2.r	8a	.	.
.	.	8f	.	.
4C	.	8b-	.	.
.	.	8g	.	.
4r	.	8cc	.	.
.	.	8e	.	.
=18	=18	=18	=18	=18
4F	8r	8f	1r	1ccc_
.	8f	8a	.	.
4r	8a	8cc	.	.
.	8f	8a	.	.
4c	8g	8b-	.	.
.	8e	8g	.	.
4r	8c	8e	.	.
.	8b-	8c	.	.
=19	=19	=19	=19	=19
4F	8a	8f	1r	1ccc]
.	8cc	8c	.	.
4r	8f	8a	.	.
.	8a	8cc	.	.
4C	8g	8b-	.	.
.	8e	8gg	.	.
4r	8c	8ee	.	.
.	8e	8b-	.	.
=20	=20	=20	=20	=20
4F	4f	8a	1r	2aaa
.	.	8f	.	.
4r	4.r	8a	.	.
.	.	8cc	.	.
4A	.	4ff	.	8ggg
.	8f	.	.	8fff
4r	8a	4r	.	8eee
.	8b-	.	.	8ddd
=21	=21	=21	=21	=21
4C	4f	8r	1r	2ccc
.	.	8f	.	.
4r	4.r	8a	.	.
.	.	8f	.	.
4E	.	4g	.	2bb-
.	8c	.	.	.
4r	8g	4r	.	.
.	8c	.	.	.
=22	=22	=22	=22	=22
4F	4f	8r	1r	2aa
.	.	8cc	.	.
4r	4.r	8ff	.	.
.	.	8cc	.	.
4D	.	4f	.	4ff 4a
.	8f	.	.	.
4r	8a	4r	.	4r
.	8f	.	.	.
=23	=23	=23	=23	=23
4BB-	4dd	8r	1r	2gg 2b-
.	.	8dd	.	.
4r	4.r	8b-	.	.
.	.	8dd	.	.
4GG	.	4d	.	8bb-
.	8b-	.	.	8gg
4C	8a	4r	.	8ff
.	8g	.	.	8ee
=24	=24	=24	=24	=24
4FF	4a	8r	1r	4ff
.	.	8a	.	.
4r	4.r	8cc	.	4r
.	.	8a	.	.
4AA	.	4f	.	4.cc
.	8a	.	.	.
4r	8f	4r	.	.
.	8e-	.	.	8cc#
=25	=25	=25	=25	=25
4BB-	4d	8r	1r	8dd
.	.	8B-	.	8d
4r	4.r	8d	.	8b-
.	.	8B-	.	8g
4C	.	4A	.	4f
.	8A	.	.	.
4r	8G	4r	.	4e
.	8B-	.	.	.
=26	=26	=26	=26	=26
4F	4A	8r	1r	2f
.	.	8A	.	.
4r	4.r	8f	.	.
.	.	8A	.	.
4C	.	4G	.	2B- 2e
.	8G	.	.	.
4r	8B-	4r	.	.
.	8G	.	.	.
=27	=27	=27	=27	=27
4F	4F	8r	1r	4A 4f
.	.	8A	.	.
4r	4.r	8f	.	4r
.	.	8A	.	.
4C	.	4G	.	2e 2B-
.	8G	.	.	.
4r	8B-	4r	.	.
.	8G	.	.	.
=28	=28	=28	=28	=28
4F	8F	8r	1r	4A 4f
.	8F	8A	.	.
4r	8A	8c	.	2.r
.	8F	8A	.	.
4FF	4A	4f	.	.
4r	4r	4r	.	.
=29	=29	=29	=29	=29
4FF	2r	8r	1r	1ff
.	.	8f	.	.
4r	.	8a	.	.
.	.	8f	.	.
4F	8r	4A	.	.
.	8A	.	.	.
4r	8c	4r	.	.
.	8A	.	.	.
=30	=30	=30	=30	=30
4FF	4a	8r	1r	2.cc
.	.	8f	.	.
4r	4.r	8a	.	.
.	.	8f	.	.
4F	.	4A	.	.
.	8A	.	.	.
4r	8c	4r	.	16b-
.	.	.	.	16a
.	8A	.	.	16g
.	.	.	.	16f
=31	=31	=31	=31	=31
4E	4c	8r	2.c	4.g
.	.	8e	.	.
4r	4.r	8g	.	.
.	.	8e	.	8a
4EE	.	4c	.	4b-
.	8c	.	.	.
4r	8g	4r	4c	4b-
.	8e	.	.	.
=32	=32	=32	=32	=32
4FF	4f	8r	2c	2a
.	.	8c	.	.
4r	4.r	8f	.	.
.	.	8c	.	.
4F	.	4f	2r	2r
.	8A	.	.	.
4r	8c	4r	.	.
.	8A	.	.	.
=33	=33	=33	=33	=33
4AA	4F	8r	2.f	4.cc
.	.	8a	.	.
4r	4.r	8cc	.	.
.	.	8a	.	8dd
4A	.	4f	.	4ee-
.	8f	.	.	.
4r	8cc	4r	4f	4ee-
.	8a	.	.	.
=34	=34	=34	=34	=34
4BB-	4b-	8r	2f	2dd
.	.	8f	.	.
4r	4.r	8b-	.	.
.	.	8f	.	.
4B-	.	4d	2r	2r
.	8d	.	.	.
4r	8f	4r	.	.
.	8d	.	.	.
=35	=35	=35	=35	=35
4D	4b-	8r	2.b-	4.ff
.	.	8dd	.	.
4r	4.r	8ff	.	.
.	.	8dd	.	8gg
4D	.	4b-	.	4aa-
.	8B-	.	.	.
4r	8f	4r	4b-	4aa-
.	8d	.	.	.
=36	=36	=36	=36	=36
4E-	4e-	8r	1r	2gg
.	.	8b-	.	.
4r	4.r	8ee-	.	.
.	.	8b-	.	.
4G	.	4e-	.	2bb-
.	8b-	.	.	.
4r	8ee-	4r	.	.
.	8b-	.	.	.
=37	=37	=37	=37	=37
4A-	4cc	8r	1r	2bb-
.	.	8cc	.	.
4r	4.r	8ee-	.	.
.	.	8cc	.	.
4F	.	4ff	.	2aa-
.	8cc	.	.	.
4r	8a-	4r	.	.
.	8cc	.	.	.
=38	=38	=38	=38	=38
4D	4b-	8r	1r	2aa-
.	.	8b-	.	.
4r	4.r	8ff	.	.
.	.	8b-	.	.
4E-	.	4gg	.	8gg
.	8e-	.	.	8ee-
4r	8g	4r	.	8b-
.	8b-	.	.	8g
=39	=39	=39	=39	=39
4AA-	4cc	8r	1r	4.f
.	.	8cc	.	.
4r	4.r	8c	.	.
.	.	8a-	.	8cc
4BB-	.	4g	.	4e-
.	8g	.	.	.
4r	8f	4r	.	4d
.	8A	.	.	.
=40	=40	=40	=40	=40
4E-	4G	8r	1r	2e-
.	.	8e-	.	.
4r	4.r	8g	.	.
.	.	8e-	.	.
4EE-	.	4G	.	2r
.	8G	.	.	.
4r	8B-	4r	.	.
.	8G	.	.	.
=41	=41	=41	=41	=41
4C	4g	8r	1r	1e
.	.	8G	.	.
4r	4.r	8B-	.	.
.	.	8G	.	.
4c	.	4B-	.	.
.	8G	.	.	.
4r	8B-	4r	.	.
.	8G	.	.	.
=42	=42	=42	=42	=42
4F	4A-	8r	1r	4f
.	.	8A-	.	.
4r	4.r	8f	.	4cc
.	.	8A-	.	.
4FF	.	4c	.	4a-
.	8c	.	.	.
4r	8A-	4r	.	4f
.	8c	.	.	.
=43	=43	=43	=43	=43
4BB-	4B-	8r	1r	2d
.	.	8f	.	.
4r	4.r	8b-	.	.
.	.	8f	.	.
4B-	.	4d	.	2r
.	8f	.	.	.
4r	8B-	4r	.	.
.	8a-	.	.	.
=44	=44	=44	=44	=44
4E-	4g	8r	1r	2e- 2G
.	.	8e-	.	.
4r	4.r	8g	.	.
.	.	8e-	.	.
4E-	.	4B-	.	4.gg
.	8e-	.	.	.
4r	8g	4r	.	.
.	8e-	.	.	8aa
=45	=45	=45	=45	=45
4D	4B-	8r	1r	4bb-
.	.	8b-	.	.
4r	4.r	8dd	.	4dd 4ff
.	.	8b-	.	.
4B-	.	4B-	.	4dd 4ff
.	8B-	.	.	.
4r	8d	4r	.	4dd 4ff
.	8B-	.	.	.
=46	=46	=46	=46	=46
4F	4A	8r	2ee-	2ff
.	.	8a	.	.
4r	4.r	8cc	.	.
.	.	8a	.	.
4B-	.	4B-	8dd	2ff
.	8d	.	8b-	.
4r	8f	4r	8dd	.
.	8d	.	8b-	.
=47	=47	=47	=47	=47
4F	4a	8r	2ee-	2ff
.	.	8a	.	.
4r	4.r	8cc	.	.
.	.	8a	.	.
4BB-	.	4B-	2r	4dd
.	8B-	.	.	.
4r	8d	4r	.	4ff
.	8B-	.	.	.
=48	=48	=48	=48	=48
4F	4A	8r	1r	2cc
.	.	8f	.	.
4r	4.r	8a	.	.
.	.	8f	.	.
4FF	.	8A	.	2r
.	8e-	8g	.	.
4r	8d	8f	.	.
.	8c	8e-	.	.
=49	=49	=49	=49	=49
4BB-	4B-	8d	1r	1bb-
.	.	8b-	.	.
4r	4.r	8dd	.	.
.	.	8b-	.	.
4B-	.	4d	.	.
.	8d	.	.	.
4r	8f	4r	.	.
.	8d	.	.	.
=50	=50	=50	=50	=50
4BB-	4dd	8r	1r	2.ff
.	.	8b-	.	.
4r	4.r	8dd	.	.
.	.	8b-	.	.
4B-	.	4d	.	.
.	8d	.	.	.
4r	8f	4r	.	16ee-
.	.	.	.	16dd
.	8d	.	.	16cc
.	.	.	.	16b-
=51	=51	=51	=51	=51
4AA	4f	8r	2.f	4.cc
.	.	8a	.	.
4r	4.r	8cc	.	.
.	.	8a	.	8dd
4A	.	4f	.	4ee-
.	8f	.	.	.
4r	8cc	4r	4f	4ee-
.	8a	.	.	.
=52	=52	=52	=52	=52
4BB-	4b-	8r	2f	2dd
.	.	8b-	.	.
4r	4.r	8f	.	.
.	.	8b-	.	.
4B-	.	4B-	2r	2r
.	8d	.	.	.
4r	8f	4r	.	.
.	8d	.	.	.
=53	=53	=53	=53	=53
4BB-	4b-	8r	4.B-	1f
.	.	8b-	.	.
4r	4.r	8dd	.	.
.	.	8b-	8c	.
4B-	.	4B-	4d	.
.	8B-	.	.	.
4r	8d	4r	4d	.
.	8B-	.	.	.
=54	=54	=54	=54	=54
4FF	4f	8r	4.c	1f
.	.	8a	.	.
4r	4.r	8cc	.	.
.	.	8a	8d	.
4F	.	4f	4e-	.
.	8A	.	.	.
4r	8c	4r	4e-	.
.	8A	.	.	.
=55	=55	=55	=55	=55
4BB-	4B-	8r	1r	8d
.	.	8d	.	8f
4r	4.r	8f	.	8b-
.	.	8b-	.	8dd
4B-	.	4d	.	4.ff
.	8b-	.	.	.
4r	8dd	4r	.	.
.	8b-	.	.	8dd
=56	=56	=56	=56	=56
4F	4f	8r	1r	2dd
.	.	8b-	.	.
4r	4.r	8f	.	.
.	.	8b-	.	.
4FF	.	4a	.	2cc
.	8f	.	.	.
4r	8cc	4r	.	.
.	8a	.	.	.
=57	=57	=57	=57	=57
4BB-	4b-	8r	1r	1b- 1d
.	.	8d	.	.
4r	4.r	8f	.	.
.	.	8d	.	.
4B-	.	4B-	.	.
.	8B-	.	.	.
4r	8d	4r	.	.
.	8B-	.	.	.
=58	=58	=58	=58	=58
4C	4e-	8r	1r	4.e- 4.a
.	.	8c	.	.
4r	4.r	8e-	.	.
.	.	8c	.	24cc
.	.	.	.	24b-
.	.	.	.	24a
4c	.	4A	.	4ee-
.	8A	.	.	.
4r	8c	4r	.	4r
.	8A	.	.	.
=59	=59	=59	=59	=59
4FF	4f	8r	1r	4ee-
.	.	8c	.	.
4r	4.r	8e-	.	4cc
.	.	8c	.	.
4F	.	4e-	.	4a
.	8A-	.	.	.
4r	8c	4r	.	4e-
.	8A	.	.	.
=60	=60	=60	=60	=60
4BB-	4B-	8r	1r	2e-
.	.	8f	.	.
4r	4.r	8b-	.	.
.	.	8f	.	.
4B-	.	4d	.	2d
.	8d	.	.	.
4r	8f	4r	.	.
.	8d	.	.	.
=61	=61	=61	=61	=61
4D	4b-	8r	1r	4.ff
.	.	8b-	.	.
4r	4.r	8dd	.	.
.	.	8ee-	.	8gg
4d	.	4ff	.	4aa-
.	8B-	.	.	.
4r	8f	4r	.	4aa-
.	8B-	.	.	.
=62	=62	=62	=62	=62
4E-	4e-	8r	1r	4gg
.	.	8ee-	.	.
4r	4.r	8gg	.	2eee-
.	.	8ee-	.	.
4e-	.	4g	.	.
.	8g	.	.	.
4r	8b	4r	.	4ddd
.	8g	.	.	.
=63	=63	=63	=63	=63
4E-	4cc	8r	1r	4ccc
.	.	8ee-	.	.
4r	4.r	8cc	.	4ggg
.	.	8ee-	.	.
4E-	.	4e-	.	8fff
.	8cc	.	.	8eee-
4r	8ee-	4r	.	8ddd
.	8cc	.	.	8ccc
=64	=64	=64	=64	=64
4F	4f	8r	1r	2aa
.	.	8ff	.	.
4r	4.r	8cc	.	.
.	.	8ff	.	.
4FF	.	4a	.	2r
.	8a	.	.	.
4r	8cc	4r	.	.
.	8a	.	.	.
=65	=65	=65	=65	=65
4BB-	4b-	8r	1r	1ff
.	.	8b-	.	.
4r	2.r	8dd	.	.
.	.	8b-	.	.
4F	.	8ee-	.	.
.	.	8cc	.	.
4r	.	8ff	.	.
.	.	8a	.	.
=66	=66	=66	=66	=66
4B-	8r	8b-	1r	1ff
.	8b-	8dd	.	.
4r	8dd	8ff	.	.
.	8b-	8dd	.	.
4F	8cc	8ee-	.	.
.	8a	8cc	.	.
4r	8f	8a	.	.
.	8ee-	8e-	.	.
=67	=67	=67	=67	=67
4BB-	8dd	8b-	1r	1ff
.	8f	8f	.	.
4r	8b-	8dd	.	.
.	8dd	8ff	.	.
4FF	8cc	8ee-	.	.
.	8a	8cc	.	.
4r	8f	8a	.	.
.	8a	8e-	.	.
=68	=68	=68	=68	=68
4BB-	4b-	8d	1r	2ddd
.	.	8B-	.	.
4r	4.r	8d	.	.
.	.	8f	.	.
4d	.	4b-	.	8ccc
.	8B-	.	.	8bb-
4r	8d	4r	.	8aa
.	8f	.	.	8gg
=69	=69	=69	=69	=69
4F	4B-	8r	1r	2ff
.	.	8b-	.	.
4r	4.r	8dd	.	.
.	.	8b-	.	.
4A	.	4cc	.	2ee-
.	8f	.	.	.
4r	8cc	4r	.	.
.	8f	.	.	.
=70	=70	=70	=70	=70
4B-	4b-	8r	1r	4dd
.	.	8f	.	.
4r	4.r	8b-	.	4r
.	.	8f	.	.
4G	.	4B-	.	4b- 4d
.	8B-	.	.	.
4r	8d	4r	.	4r
.	8B-	.	.	.
=71	=71	=71	=71	=71
4E-	4g	8r	1r	2e- 2cc
.	.	8g	.	.
4r	4.r	8e-	.	.
.	.	8g	.	.
4C	.	4G	.	8ee-
.	8e-	.	.	8cc
4F	8d	4r	.	8b-
.	8c	.	.	8a
=72	=72	=72	=72	=72
4BB-	4d	8r	1r	4b-
.	.	8d	.	.
4r	4.r	8f	.	4r
.	.	8d	.	.
4D	.	4B-	.	4.ff
.	8d	.	.	.
4r	8B-	4r	.	.
.	8A	.	.	8ff#
=73	=73	=73	=73	=73
4E-	4G	8r	1r	8gg
.	.	8e-	.	8bb-
4r	4.r	8g	.	8cc
.	.	8cc	.	8ee-
4F	.	4b-	.	4dd
.	8b-	.	.	.
4r	8a	4r	.	4cc
.	8e-	.	.	.
=74	=74	=74	=74	=74
4B-	4d	8r	1r	2b-
.	.	8d	.	.
4r	4.r	8b-	.	.
.	.	8d	.	.
4F	.	4c	.	2a 2e-
.	8c	.	.	.
4r	8e-	4r	.	.
.	8c	.	.	.
=75	=75	=75	=75	=75
4BB-	4B-	8r	1r	4b- 4d
.	.	8d	.	.
4r	4.r	8b-	.	4r
.	.	8d	.	.
4FF	.	4c	.	2e- 2A
.	8c	.	.	.
4r	8e-	4r	.	.
.	8c	.	.	.
=76	=76	=76	=76	=76
4BB-	8B-	8r	1r	4B- 4d
.	8F	8d	.	.
4r	8F	8d	.	2.r
.	8E-	8c	.	.
4BB-	4D	4B-	.	.
4r	4r	4r	.	.
==	==	==	==	==
*-	*-	*-	*-	*-
!!!RWG1: This file contains only pitch and duration data.
!!!RWG2: Transposing instruments are not transposed.
!!!RWG3: Spines may have incompatible meters.
!!!RWG4: Durations of rests and tied notes may be interpreted.
!!!RWG: Key is interpreted using the Humdrum key tool.
!!!GTL: 10 Divertimentos
!!!AFT: stage1
!!!END: 1997/04/15
!!!KEY: 3826498725
!!!EMD: Converted from MuseData to Humdrum Dec 16, 2000, by Andreas Kornstaedt using muse2kern.
!!!EMD: Manual editing by Craig Sapp, Nov 2001
